X:25
T: James Gannon's
S: B.Breathnach:"Ceol Rince na hEireann" III/10 (gan ainm)
Z: B.Black
L: 1/8
M: 6/8
R: jig
K: D
a/g/|fef d2B|AFA d2e|faf def|gfg a2g|
fef d2B|AFA d2e|faf ede|fdd d2 :|
a|: aba fdf|a2a baf|gag ece|geg bag|
aba fdf|a2a bag|fee ede|fdd d3 :|
